X:1
T:Deh, dimmi car mio ben
T:Lodovico Agostini
T:Deh, dimmi car mio ben
C:Lodovico Agostini
%%score [ 1 2 3 4 ]
L:1/8
Q:1/4=84
M:3/2
K:F
V:1 treble nm="Soprano" snm="S"
V:2 alto2 nm="Alto" snm="A"
V:3 alto nm="Tenor" snm="T"
V:4 bass3 nm="Bass" snm="B"
V:1
 z12 |[Q:1/4=120] A4 B4 c4 | d8 d4 | c4 =B6 B2 | c4 A8 | =B8 z4 | A4 B4 c4 | d8 d4 | c4 =B6 B2 | %9
w: |Deh, dim- mi|car mio|ben quan- do|ti par-|ti,|Deh, dim- mi|car mio|ben quan- do|
 c4 A8 |[M:4/4][Q:1/4=80] =B4 z2 d2 | c2 c2 d2 d2 | f6 f2 | e4 e2 d2- | d2 ^c=B c4 | d4 z2 B2 | %16
w: ti par-|ti, Pe-|ro che te- co anch'|io vor-|rei ve- ni-||re, Che'l|
 c2 d3 d d2 | ^c4 d2 d2- | d2 c2 B4 | A2 d4 c2 | B4 A2 A2 | c2 c2 d2 e2 | f6 e2 | d4 G4 | A8 | %25
w: cor den- tro mi|di- ce ch'a|_ la- sciar-|ti, ch'a la-|sciar- ti, Ha-|vria piu do- glia as-|sai che|di mo-|ri-|
 =B4 z2 _B2 | c2 d3 d d2 | ^c4 d2 d2- | d2 c2 B4 | A2 d4 c2 | B4 A2 A2 | c2 c2 d2 e2 | f6 e2 | %33
w: re, Che'l|cor den- tro mi|di- ce ch'a|_ la- sciar-|ti, ch'a la-|sciar- ti, Ha-|vria piu do- glia as-|sai che|
 d4 G4 | A8- | A8 | =B8 |] %37
w: di mo-|ri-||re.|
V:2
 z12 | ^F4 G4 A4 | B8 B4 | A4 G6 G2 | G4 G4 ^F4 | G8 z4 | ^F4 G4 A4 | B8 B4 | A4 G6 G2 | %9
w: |Deh, dim- mi|car mio|ben quan- do|ti par- *|ti,|Deh, dim- mi|car mio|ben quan- do|
 G4 G4 ^F4 |[M:4/4] G4 z2 A2 | A2 A2 B2 B2 | c6 c2 | c4 B4 | A8 | ^F4 z2 G2 | A2 B3 B B2 | %17
w: ti par- *|ti, Pe-|ro che te- co anch'|io vor-|rei ve-|ni-|re, Che'l|cor den- tro mi|
 A4 A2 B2- | B2 A2 G4 | F2 B4 A2 | G4 F2 F2 | A2 A2 B2 B2 | c6 c2 | B2 A2 G4- | G2 ^FE F4 | %25
w: di- ce ch'a|_ la- sciar-|ti, ch'a la-|sciar- ti, Ha-|vria piu do- glia as-|sai che|di mo- ri-||
 G4 z2 G2 | A2 B3 B B2 | A4 A2 B2- | B2 A2 G4 | F2 B4 A2 | G4 F2 F2 | A2 A2 B2 B2 | c6 c2 | %33
w: re, Che'l|cor den- tro mi|di- ce ch'a|_ la- sciar-|ti, ch'a la-|sciar- ti, Ha-|vria piu do- glia as-|sai che|
 B2 A2 G4- | G4 ^F2 E2 | ^F8 | G8 |] %37
w: di mo- ri-|||re.|
V:3
 z12 | D4 D4 F4 | F8 F4 | F4 D6 D2 | _E4 D8 | D8 z4 | D4 D4 F4 | F8 F4 | F4 D6 D2 | _E4 D8 | %10
w: |Deh, dim- mi|car mio|ben quan- do|ti par-|ti,|Deh, dim- mi|car mio|ben quan- do|ti par-|
[M:4/4] D4 z2 F2 | F2 E2 G2 F2 | A6 A2 | G4 G4 | E8 | D4 z2 D2 | F2 F3 F G2 | E4 D2 F2- | %18
w: ti, Pe-|ro che te- co anch'|io vor-|rei ve-|ni-|re, Che'l|cor den- tro mi|di- ce ch'a|
 F2 F2 D4 | D2 F4 F2 | D4 D2 C2 | F2 F2 F2 G2 | A6 G2 | F4 B,4 | D8 | D4 z2 D2 | F2 F3 F G2 | %27
w: _ la- sciar-|ti, ch'a la-|sciar- ti, Ha-|vria piu do- glia as-|sai che|di mo-|ri-|re, Che'l|cor den- tro mi|
 E4 D2 F2- | F2 F2 D4 | D2 F4 F2 | D4 D2 C2 | F2 F2 F2 G2 | A6 G2 | F4 B,4 | D8- | D8 | D8 |] %37
w: di- ce ch'a|_ la- sciar-|ti, ch'a la-|sciar- ti, Ha-|vria piu do- glia as-|sai che|di mo-|ri-||re.|
V:4
 z12 | D,4 G,4 F,4 | B,,8 B,,4 | F,4 G,6 G,2 | C,4 D,8 | G,8 z4 | D,4 G,4 F,4 | B,,8 B,,4 | %8
w: |Deh, dim- mi|car mio|ben quan- do|ti par-|ti,|Deh, dim- mi|car mio|
 F,4 G,6 G,2 | C,4 D,8 |[M:4/4] G,4 z2 D,2 | F,2 A,2 G,2 B,2 | F,6 F,2 | C4 G,4 | A,8 | %15
w: ben quan- do|ti par-|ti, Pe-|ro che te- co anch'|io vor-|rei ve-|ni-|
 D,4 z2 G,2 | F,2 B,3 B, G,2 | A,4 D,2 B,2- | B,2 F,2 G,4 | D,2 B,4 F,2 | G,4 D,2 F,2 | %21
w: re, Che'l|cor den- tro mi|di- ce ch'a|_ la- sciar-|ti, ch'a la-|sciar- ti, Ha-|
 F,2 F,2 B,2 G,2 | F,6 C,2 | D,4 _E,4 | D,8 | G,4 z2 G,2 | F,2 B,3 B, G,2 | A,4 D,2 B,2- | %28
w: vria piu do- glia as-|sai che|di mo-|ri-|re, Che'l|cor den- tro mi|di- ce ch'a|
 B,2 F,2 G,4 | D,2 B,4 F,2 | G,4 D,2 F,2 | F,2 F,2 B,2 G,2 | F,6 C,2 | D,4 _E,4 | D,8- | D,8 | %36
w: _ la- sciar-|ti, ch'a la-|sciar- ti, Ha-|vria piu do- glia as-|sai che|di mo-|ri-||
 G,8 |] %37
w: re.|

